icons/Development/terminal-window-line.svg

<svg viewBox="0 0 24 24" xmlns="http://www.w3.org/2000/svg"><path d="M20 9V5H4V9H20ZM20 11H4V19H20V11ZM3 3H21C21.5523 3 22 3.44772 22 4V20C22 20.5523 21.5523 21 21 21H3C2.44772 21 2 20.5523 2 20V4C2 3.44772 2.44772 3 3 3ZM5 12H8V17H5V12ZM5 6H7V8H5V6ZM9 6H11V8H9V6Z"/></svg>

<svg xmlns="http://www.w3.org/2000/svg" viewBox="0 0 24 24">
    <g>
        <path fill="none" d="M0 0h24v24H0z"/>
        <path d="M20 9V5H4v4h16zm0 2H4v8h16v-8zM3 3h18a1 1 0 0 1 1 1v16a1 1 0 0 1-1 1H3a1 1 0 0 1-1-1V4a1 1 0 0 1 1-1zm2 9h3v5H5v-5zm0-6h2v2H5V6zm4 0h2v2H9V6z"/>
    </g>
</svg>
